X:4447
L:1/8
Q:1/8=500
M:4/4
K:A
 cB |: ABcd efec | eaec efec | dfBd ceAc | Bcdc BG E2 | ABcd efec | eaec efec | dece BeAe |1 
 EGBG A2 cB :|2 EGBG A2 fg |: a2 ag aece | a2 gf ecAc | dfBd ceAc | Bcdc BG E2 | c/B/AeA fA e2 | 
 fgaf ecAc | dece BeAe |1 EGBG A2 fg :|

